static/img/logo.svg

<svg width="246" height="50" viewBox="0 0 246 50" fill="none" xmlns="http://www.w3.org/2000/svg">
<g filter="url(#filter0_d)">
<path d="M32.0628 1.93732L17 17.0001H25.08C30.5201 17.0001 33.0001 22.12 33.0001 25.0001V47.7202C33.0001 48.4271 33.5731 49.0002 34.2801 49.0002H47.6401C48.347 49.0002 48.9201 48.4291 48.9211 47.7222C48.9302 41.1392 49.0001 27.5862 49.0001 17.0001C49.0001 7.7233 41.6054 1.71736 34.3236 1.06015C33.4783 0.983864 32.6629 1.3372 32.0628 1.93732Z" fill="url(#paint0_linear)"/>
</g>
<g filter="url(#filter1_d)">
<path fill-rule="evenodd" clip-rule="evenodd" d="M1 2.28C1 1.57308 1.57308 1 2.28 1H3.88001C4.58693 1 5.16001 1.57308 5.16001 2.28V15.72C5.16001 16.427 4.58693 17 3.88001 17H2.28C1.57308 17 1 16.427 1 15.72V2.28ZM8.20002 1C7.49309 1 6.92001 1.57308 6.92001 2.28V15.72C6.92001 16.427 7.49309 17 8.20002 17H9.80002C10.5069 17 11.08 16.427 11.08 15.72V2.28C11.08 1.57308 10.5069 1 9.80002 1H8.20002ZM14.12 1C13.4131 1 12.84 1.57308 12.84 2.28V15.72C12.84 16.427 13.4131 17 14.12 17H17V2.28C17 1.57308 16.427 1 15.72 1H14.12ZM1.74981 32.2503C1.26971 32.7304 1 33.3815 1 34.0605V47.7201C1 48.427 1.57308 49.0001 2.28 49.0001H3.88001C4.58693 49.0001 5.16001 48.427 5.16001 47.7201V29.6126C5.16001 29.3275 4.81532 29.1848 4.61373 29.3864L1.74981 32.2503ZM6.92001 28.1404C6.92001 27.4615 7.18973 26.8103 7.66982 26.3302L10.5337 23.4663C10.7353 23.2647 11.08 23.4075 11.08 23.6926V47.7201C11.08 48.427 10.5069 49.0001 9.80002 49.0001H8.20002C7.49309 49.0001 6.92001 48.427 6.92001 47.7201V28.1404ZM13.5898 20.4103C13.1097 20.8904 12.84 21.5415 12.84 22.2205V47.7201C12.84 48.427 13.4131 49.0001 14.12 49.0001H15.72C16.427 49.0001 17 48.427 17 47.7201V17.0001L13.5898 20.4103Z" fill="#F5F4F1"/>
</g>
<path d="M71.16 37V12.724H65.244V37H71.16Z" fill="#EBEBF2"/>
<path d="M81.109 18.674H75.431V37H81.245V27.99C81.245 24.114 84.101 22.89 86.583 22.89C89.371 22.89 91.071 24.046 91.071 26.936V37H96.885V25.032C96.885 20.306 93.485 18.232 88.895 18.232C85.801 18.232 83.285 19.082 81.279 20.986H81.109V18.674Z" fill="#EBEBF2"/>
<path d="M111.711 15.784C112.731 15.784 113.241 15.852 113.717 15.92V11.806C113.241 11.738 112.357 11.568 110.623 11.568C105.523 11.568 102.531 12.894 102.531 17.382V18.674H99.3686V22.414H102.531V37.034H108.345V22.414H113.309V18.674H108.345V18.096C108.345 15.988 109.807 15.784 111.711 15.784Z" fill="#EBEBF2"/>
<path d="M115.839 18.674V37H121.653V28.976C121.653 24.692 125.053 23.706 128.249 23.706C129.371 23.706 130.425 23.876 131.173 24.046V18.402C130.697 18.266 130.017 18.198 129.405 18.198C125.903 18.198 123.489 19.15 121.687 21.088H121.517V18.674H115.839Z" fill="#EBEBF2"/>
<path d="M154.006 34.042V23.672C154.006 19.286 149.824 18.028 143.942 18.028C138.536 18.028 133.81 19.558 133.674 24.148H139.794C139.93 22.618 141.698 21.972 143.976 21.972C146.798 21.972 147.954 22.652 147.954 23.672C147.954 24.624 147.308 25.032 145.846 25.168L138.264 25.95C134.932 26.29 132.45 27.752 132.45 31.73C132.45 35.878 136.122 37.68 139.998 37.68C143.5 37.68 146.526 36.66 148.328 34.416V35.028C148.328 35.98 148.532 36.694 148.838 37H154.516V36.796C154.04 36.218 154.006 35.096 154.006 34.042ZM148.192 29.01C148.192 32.716 144.316 33.94 141.732 33.94C139.828 33.94 138.468 33.362 138.468 31.696C138.468 30.166 139.522 29.588 141.086 29.384L146.492 28.602C147.104 28.534 147.818 28.398 148.192 28.126V29.01Z" fill="#EBEBF2"/>
<path d="M168.55 33.294C165.082 33.294 163.076 31.356 163.076 27.854C163.076 24.352 165.082 22.414 168.55 22.414C172.256 22.414 173.48 24.012 173.786 25.61H180.144C179.566 21.292 176.54 18.028 168.55 18.028C161.138 18.028 157.058 21.632 157.058 27.854C157.058 34.042 161.138 37.68 168.55 37.68C176.54 37.68 179.634 34.382 180.212 29.996H173.82C173.514 31.696 172.256 33.294 168.55 33.294Z" fill="#EBEBF2"/>
<path d="M194.187 18.028C186.571 18.028 182.491 21.666 182.491 27.854C182.491 34.042 186.571 37.68 194.187 37.68C201.803 37.68 205.883 34.042 205.883 27.854C205.883 21.666 201.803 18.028 194.187 18.028ZM194.187 33.294C190.515 33.294 188.509 31.356 188.509 27.854C188.509 24.352 190.515 22.414 194.187 22.414C197.859 22.414 199.865 24.352 199.865 27.854C199.865 31.356 197.859 33.294 194.187 33.294Z" fill="#EBEBF2"/>
<path d="M223.083 24.148H229.203C229.033 19.558 224.307 18.028 218.425 18.028C212.679 18.028 208.327 19.49 208.327 23.842C208.327 27.616 210.911 28.806 214.821 29.316L221.111 30.132C222.845 30.37 223.559 30.744 223.559 31.832C223.559 33.022 222.233 33.804 218.969 33.804C215.943 33.804 214.073 33.158 213.937 31.016H207.681C207.885 36.388 212.577 37.68 218.867 37.68C225.735 37.68 229.917 36.286 229.917 31.526C229.917 27.446 227.469 26.256 223.491 25.814L216.793 25.032C215.059 24.828 214.481 24.454 214.481 23.502C214.481 22.516 215.671 21.836 218.391 21.836C221.043 21.836 222.947 22.414 223.083 24.148Z" fill="#EBEBF2"/>
<path d="M242.004 32.58C240.542 32.58 239.726 32.172 239.726 30.812V22.414H244.69V18.674H239.726V13.676H233.912V18.674H230.75V22.414H233.912V31.866C233.912 35.878 235.612 37.306 240.848 37.306C242.242 37.306 243.874 37.136 244.656 37V32.41C243.84 32.546 242.65 32.58 242.004 32.58Z" fill="#EBEBF2"/>
<defs>
<filter id="filter0_d" x="16.2" y="0.409865" width="33.6001" height="49.5503" filterUnits="userSpaceOnUse" color-interpolation-filters="sRGB">
<feFlood flood-opacity="0" result="BackgroundImageFix"/>
<feColorMatrix in="SourceAlpha" type="matrix" values="0 0 0 0 0 0 0 0 0 0 0 0 0 0 0 0 0 0 127 0"/>
<feOffset dy="0.16"/>
<feGaussianBlur stdDeviation="0.400001"/>
<feColorMatrix type="matrix" values="0 0 0 0 0 0 0 0 0 0 0 0 0 0 0 0 0 0 0.5 0"/>
<feBlend mode="normal" in2="BackgroundImageFix" result="effect1_dropShadow"/>
<feBlend mode="normal" in="SourceGraphic" in2="effect1_dropShadow" result="shape"/>
</filter>
<filter id="filter1_d" x="0.199998" y="0.359999" width="17.6" height="49.6001" filterUnits="userSpaceOnUse" color-interpolation-filters="sRGB">
<feFlood flood-opacity="0" result="BackgroundImageFix"/>
<feColorMatrix in="SourceAlpha" type="matrix" values="0 0 0 0 0 0 0 0 0 0 0 0 0 0 0 0 0 0 127 0"/>
<feOffset dy="0.16"/>
<feGaussianBlur stdDeviation="0.400001"/>
<feColorMatrix type="matrix" values="0 0 0 0 0 0 0 0 0 0 0 0 0 0 0 0 0 0 0.5 0"/>
<feBlend mode="normal" in2="BackgroundImageFix" result="effect1_dropShadow"/>
<feBlend mode="normal" in="SourceGraphic" in2="effect1_dropShadow" result="shape"/>
</filter>
<linearGradient id="paint0_linear" x1="49.0001" y1="1.00006" x2="5.9174" y2="15.0737" gradientUnits="userSpaceOnUse">
<stop stop-color="#E7B28C"/>
<stop offset="0.49698" stop-color="#BD62B6"/>
<stop offset="1" stop-color="#6658C5"/>
</linearGradient>
</defs>
</svg>

<svg xmlns="http://www.w3.org/2000/svg" width="246" height="50" fill="none"><g filter="url(#a)"><path fill="url(#b)" d="M32.063 1.937 17 17h8.08c5.44 0 7.92 5.12 7.92 8v22.72c0 .707.573 1.28 1.28 1.28h13.36a1.28 1.28 0 0 0 1.281-1.278c.01-6.583.08-20.136.08-30.722 0-9.277-7.396-15.283-14.677-15.94-.846-.076-1.661.277-2.261.877Z"/></g><g filter="url(#c)"><path fill="#F5F4F1" fill-rule="evenodd" d="M1 2.28C1 1.573 1.573 1 2.28 1h1.6c.707 0 1.28.573 1.28 1.28v13.44A1.28 1.28 0 0 1 3.88 17h-1.6A1.28 1.28 0 0 1 1 15.72V2.28ZM8.2 1a1.28 1.28 0 0 0-1.28 1.28v13.44c0 .707.573 1.28 1.28 1.28h1.6a1.28 1.28 0 0 0 1.28-1.28V2.28A1.28 1.28 0 0 0 9.8 1H8.2Zm5.92 0a1.28 1.28 0 0 0-1.28 1.28v13.44c0 .707.573 1.28 1.28 1.28H17V2.28A1.28 1.28 0 0 0 15.72 1h-1.6ZM1.75 32.25A2.56 2.56 0 0 0 1 34.06v13.66c0 .707.573 1.28 1.28 1.28h1.6a1.28 1.28 0 0 0 1.28-1.28V29.613a.32.32 0 0 0-.546-.227L1.75 32.25Zm5.17-4.11c0-.678.27-1.33.75-1.81l2.864-2.864a.32.32 0 0 1 .546.227V47.72A1.28 1.28 0 0 1 9.8 49H8.2a1.28 1.28 0 0 1-1.28-1.28V28.14Zm6.67-7.73a2.56 2.56 0 0 0-.75 1.81v25.5c0 .707.573 1.28 1.28 1.28h1.6A1.28 1.28 0 0 0 17 47.72V17l-3.41 3.41Z" clip-rule="evenodd"/></g><path fill="#EBEBF2" d="M71.16 37V12.724h-5.916V37h5.916ZM81.109 18.674h-5.678V37h5.814v-9.01c0-3.876 2.856-5.1 5.338-5.1 2.788 0 4.488 1.156 4.488 4.046V37h5.814V25.032c0-4.726-3.4-6.8-7.99-6.8-3.094 0-5.61.85-7.616 2.754h-.17v-2.312ZM111.711 15.784c1.02 0 1.53.068 2.006.136v-4.114c-.476-.068-1.36-.238-3.094-.238-5.1 0-8.092 1.326-8.092 5.814v1.292h-3.162v3.74h3.162v14.62h5.814v-14.62h4.964v-3.74h-4.964v-.578c0-2.108 1.462-2.312 3.366-2.312ZM115.839 18.674V37h5.814v-8.024c0-4.284 3.4-5.27 6.596-5.27 1.122 0 2.176.17 2.924.34v-5.644c-.476-.136-1.156-.204-1.768-.204-3.502 0-5.916.952-7.718 2.89h-.17v-2.414h-5.678ZM154.006 34.042v-10.37c0-4.386-4.182-5.644-10.064-5.644-5.406 0-10.132 1.53-10.268 6.12h6.12c.136-1.53 1.904-2.176 4.182-2.176 2.822 0 3.978.68 3.978 1.7 0 .952-.646 1.36-2.108 1.496l-7.582.782c-3.332.34-5.814 1.802-5.814 5.78 0 4.148 3.672 5.95 7.548 5.95 3.502 0 6.528-1.02 8.33-3.264v.612c0 .952.204 1.666.51 1.972h5.678v-.204c-.476-.578-.51-1.7-.51-2.754Zm-5.814-5.032c0 3.706-3.876 4.93-6.46 4.93-1.904 0-3.264-.578-3.264-2.244 0-1.53 1.054-2.108 2.618-2.312l5.406-.782c.612-.068 1.326-.204 1.7-.476v.884ZM168.55 33.294c-3.468 0-5.474-1.938-5.474-5.44 0-3.502 2.006-5.44 5.474-5.44 3.706 0 4.93 1.598 5.236 3.196h6.358c-.578-4.318-3.604-7.582-11.594-7.582-7.412 0-11.492 3.604-11.492 9.826 0 6.188 4.08 9.826 11.492 9.826 7.99 0 11.084-3.298 11.662-7.684h-6.392c-.306 1.7-1.564 3.298-5.27 3.298ZM194.187 18.028c-7.616 0-11.696 3.638-11.696 9.826 0 6.188 4.08 9.826 11.696 9.826s11.696-3.638 11.696-9.826c0-6.188-4.08-9.826-11.696-9.826Zm0 15.266c-3.672 0-5.678-1.938-5.678-5.44 0-3.502 2.006-5.44 5.678-5.44s5.678 1.938 5.678 5.44c0 3.502-2.006 5.44-5.678 5.44ZM223.083 24.148h6.12c-.17-4.59-4.896-6.12-10.778-6.12-5.746 0-10.098 1.462-10.098 5.814 0 3.774 2.584 4.964 6.494 5.474l6.29.816c1.734.238 2.448.612 2.448 1.7 0 1.19-1.326 1.972-4.59 1.972-3.026 0-4.896-.646-5.032-2.788h-6.256c.204 5.372 4.896 6.664 11.186 6.664 6.868 0 11.05-1.394 11.05-6.154 0-4.08-2.448-5.27-6.426-5.712l-6.698-.782c-1.734-.204-2.312-.578-2.312-1.53 0-.986 1.19-1.666 3.91-1.666 2.652 0 4.556.578 4.692 2.312ZM242.004 32.58c-1.462 0-2.278-.408-2.278-1.768v-8.398h4.964v-3.74h-4.964v-4.998h-5.814v4.998h-3.162v3.74h3.162v9.452c0 4.012 1.7 5.44 6.936 5.44 1.394 0 3.026-.17 3.808-.306v-4.59c-.816.136-2.006.17-2.652.17Z"/><defs><filter id="a" width="33.6" height="49.55" x="16.2" y=".41" color-interpolation-filters="sRGB" filterUnits="userSpaceOnUse"><feFlood flood-opacity="0" result="BackgroundImageFix"/><feColorMatrix in="SourceAlpha" values="0 0 0 0 0 0 0 0 0 0 0 0 0 0 0 0 0 0 127 0"/><feOffset dy=".16"/><feGaussianBlur stdDeviation=".4"/><feColorMatrix values="0 0 0 0 0 0 0 0 0 0 0 0 0 0 0 0 0 0 0.5 0"/><feBlend in2="BackgroundImageFix" result="effect1_dropShadow"/><feBlend in="SourceGraphic" in2="effect1_dropShadow" result="shape"/></filter><filter id="c" width="17.6" height="49.6" x=".2" y=".36" color-interpolation-filters="sRGB" filterUnits="userSpaceOnUse"><feFlood flood-opacity="0" result="BackgroundImageFix"/><feColorMatrix in="SourceAlpha" values="0 0 0 0 0 0 0 0 0 0 0 0 0 0 0 0 0 0 127 0"/><feOffset dy=".16"/><feGaussianBlur stdDeviation=".4"/><feColorMatrix values="0 0 0 0 0 0 0 0 0 0 0 0 0 0 0 0 0 0 0.5 0"/><feBlend in2="BackgroundImageFix" result="effect1_dropShadow"/><feBlend in="SourceGraphic" in2="effect1_dropShadow" result="shape"/></filter><linearGradient id="b" x1="49" x2="5.917" y1="1" y2="15.074" gradientUnits="userSpaceOnUse"><stop stop-color="#E7B28C"/><stop offset=".497" stop-color="#BD62B6"/><stop offset="1" stop-color="#6658C5"/></linearGradient></defs></svg>
